_src/_includes/img/icons/payment-methods/maestro-old.svg

<svg height="471" viewBox="0 0 750 471" width="750" xmlns="http://www.w3.org/2000/svg"><g fill="none"><rect fill="#000" height="471" rx="40" width="750"/><path d="m675.000003 235.50625c0 99.133334-80.350001 179.495835-179.483335 179.495835-99.120834 0-179.479168-80.362501-179.479168-179.495835 0-99.141668 80.358334-179.508335 179.479168-179.508335 99.133334 0 179.483335 80.366667 179.483335 179.508335" fill="#d9222a"/><path d="m356.870834 349.489584c-4.958334-6.0125-9.525-12.358333-13.675-19.008333h63.6125c3.816667-6.095834 7.2625-12.441667 10.341667-19.012501h-84.291668c-2.870833-6.15-5.425-12.491666-7.595833-19h99.475001c5.9875-17.904167 9.229167-37.05 9.229167-56.9625 0-13.045834-1.391667-25.7625-4.029167-38.012501h-109.862501c1.391667-6.479166 3.141667-12.816666 5.208333-19.008333h99.441668c-2.183334-6.508333-4.720834-12.85-7.591667-19.004167h-84.254167c3.075-6.5625 6.529166-12.904167 10.3375-19.008333h63.570834c-4.145834-6.629167-8.725-12.975-13.670834-18.991667h-36.225c5.570833-6.766667 11.629167-13.116667 18.1125-19-31.854167-28.8833338-74.1375-46.483334-120.516668-46.483334-99.129167 0-179.487501 80.366667-179.487501 179.508335 0 99.133334 80.358334 179.495835 179.487501 179.495835 46.387501 0 88.666668-17.595834 120.516668-46.475001 6.495833-5.891667 12.558334-12.258333 18.133334-19.0375z" fill="#0097d0"/><path d="m651.075003 335.543751c0-3.2 2.595833-5.795834 5.8-5.795834 3.2 0 5.791666 2.595834 5.791666 5.795834 0 3.204166-2.591666 5.8-5.791666 5.8-3.204167 0-5.8-2.595834-5.8-5.8zm5.8 4.408333c2.433333 0 4.404166-1.966667 4.404166-4.408333 0-2.433334-1.970833-4.395834-4.404166-4.395834-2.433334 0-4.408334 1.9625-4.408334 4.395834 0 2.441666 1.975 4.408333 4.408334 4.408333zm-.7875-1.8625h-1.183334v-5.091667h2.15c.445834 0 .904167.004167 1.3.258334.416667.283333.645834.775.645834 1.270833 0 .583333-.3375 1.1125-.879167 1.316667l.933333 2.245833h-1.316666l-.775-2.008333h-.875zm0-2.879167h.658333c.245833 0 .504167.016667.725-.1.195833-.129166.3-.366666.3-.591666 0-.1875-.125-.416667-.2875-.5125-.2125-.125-.541667-.1-.7625-.1h-.633333z" fill="#000"/><path d="m372.445834 284.00625c-7.670834 2.033334-15.0875 3.025-22.929167 3.008334-25.016667-.025-38.045834-11.416667-38.045834-33.200001 0-25.458333 16.5875-44.183333 39.100001-44.183333 18.416666 0 30.175 10.5 30.175 26.945833 0 5.458334-.795834 10.770834-2.745834 18.295834h-44.4875c-1.583333 10.633333 6.1875 15.304166 19.4125 15.304166 7.925 0 15.091667-1.425 23.025-4.6125zm-11.9625-44.15c0-1.608334 2.475-13.033334-10.4-13.283334-7.108334 0-12.208334 4.725-14.270834 13.283334z" fill="#000"/><path d="m387.516667 234.864583c0 9.404167 5.295834 15.9 17.329167 20.7375 9.2 3.770834 10.65 4.858334 10.65 8.220834 0 4.6625-4.066667 6.804166-13.091667 6.745833-6.779166-.05-12.9625-.870833-20.2625-2.895833l-3.229167 17.154167c6.487501 1.504166 15.587501 2 23.650001 2.1875 24.025 0 35.116667-7.866667 35.116667-24.866667 0-10.216667-4.625-16.233334-16.033334-20.7125-9.5375-3.808334-10.658333-4.637501-10.658333-8.083334 0-4.05 3.779166-6.1 11.15-6.1 4.4625 0 10.579167.4125 16.379167 1.108333l3.258333-17.241666c-5.9125-.825-14.883333-1.483334-20.075-1.483334-25.45 0-34.258334 11.458334-34.183334 25.229167" fill="#000"/><path d="m299.275 285.785417h-18.6625l.445833-7.820834c-5.691667 6.170834-13.270833 9.041667-23.558334 9.041667-12.175 0-20.516666-8.325-20.516666-20.295833 0-18.195834 14.5-28.691667 39.429167-28.691667 2.5625 0 5.820833.191666 9.166666.5625.691667-2.433334.879167-3.479167.879167-4.808334 0-4.979166-3.920833-6.8125-14.4125-6.8125-10.341667.041667-17.320834 1.570834-23.795834 3.3125l3.1875-16.7c11.195834-2.845833 18.529167-3.941666 26.825001-3.941666 19.304166 0 29.5 7.566666 29.5 21.795833.166667 3.795833-1.158333 11.4125-1.820833 14.745834-.758334 4.854166-6.108334 32.975-6.666667 39.6125zm-16.379167-33.191667c-2.366667-.241667-3.395833-.3125-5.0125-.3125-12.729167 0-19.183333 3.7875-19.183333 11.266667 0 4.691666 3.15 7.633333 8.058333 7.633333 9.145833 0 15.75-7.65 16.1375-18.5875z" fill="#000"/><path d="m477.004168 284.60625c-6.125 1.679167-10.895834 2.408334-16.058334 2.408334-11.433333 0-17.675-5.841667-17.675-16.250001-.358333-2.858333 2.433334-16.058333 3.066667-19.7375.633333-3.691666 10.5375-57.491667 10.5375-57.491667h22.2125l-3.3625 17.8h11.391667l-3.095833 18.170834h-11.441667s-6.279167 31.529167-6.279167 33.933333c0 3.825 2.316667 5.4875 7.633334 5.4875 2.545833 0 4.508333-.2375 6.029166-.691666z" fill="#000"/><path d="m576.250002 209.63125c-16.279167 0-29 6.7-36.3875 17.891666l6.4125-16.595833c-11.816667-4.3375-19.433334 1.85-26.325 10.65 0 0-1.154167 1.4625-2.3 2.8v-13.05h-20.858334c-2.825 23.029167-7.820833 46.379167-11.729167 69.445834l-.941666 5.020833h22.4375c2.125-11.708333 3.875-21.2125 5.616667-28.7875 4.766666-20.7875 12.7875-27.141667 24.829166-24.333334-2.779166 5.979167-4.304166 12.891667-4.304166 20.554167 0 18.579167 10.091666 33.787501 35.15 33.787501 25.2875 0 43.595834-13.508334 43.595834-44.308334 0-18.579167-12.2-33.075-35.195834-33.075zm-6.529167 59.316667c-7.925.125-12.729166-6.525-12.729166-16.470834 0-11.791666 7.0125-25.1125 18.275-25.1125 9.0875 0 12.2 7.204167 12.2 14.879167 0 16.779167-6.875 26.704167-17.745834 26.704167z" fill="#000"/><path d="m226.529166 285.79375h-22.341667l13.279167-69.954167-30.570834 69.954167h-20.366667l-3.725-69.55-13.320833 69.55h-20.270834l17.266667-90.995834h34.912501l2.9125 50.725001 22.116666-50.725001h37.720834z" fill="#000"/><g fill="#fff"><path d="m613.150002 274.385417c0-3.195834 2.595834-5.795834 5.795834-5.795834 3.204166 0 5.795833 2.6 5.795833 5.795834 0 3.208333-2.591667 5.804166-5.795833 5.804166-3.2 0-5.795834-2.595833-5.795834-5.804166zm5.795834 4.4125c2.433333 0 4.408333-1.979167 4.408333-4.4125 0-2.433334-1.975-4.404167-4.408333-4.404167-2.433334 0-4.408334 1.970833-4.408334 4.404167 0 2.433333 1.975 4.4125 4.408334 4.4125zm-.783334-1.866667h-1.1875v-5.083333h2.15c.45 0 .908334 0 1.304167.25.408333.279166.645833.766666.645833 1.270833 0 .579167-.3375 1.116667-.883333 1.316667l.933333 2.245833h-1.316666l-.770834-2.008333h-.875zm0-2.8875h.658334c.241666 0 .504166.016667.725-.095833.195833-.133334.295833-.358334.295833-.5875 0-.195834-.120833-.416667-.283333-.5125-.2125-.129167-.541667-.095834-.7625-.095834h-.633334z"/><path d="m378.054167 278.397917c-7.666667 2.033333-15.0875 3.029167-22.925 3.0125-25.016667-.025-38.045834-11.420834-38.045834-33.208334 0-25.45 16.579167-44.179167 39.095834-44.179167 18.420833 0 30.175 10.495834 30.175 26.941667 0 5.466667-.8 10.770834-2.741666 18.3h-44.487501c-1.583333 10.629167 6.179167 15.308334 19.408334 15.308334 7.925 0 15.0875-1.425 23.029166-4.616667zm-11.9625-44.150001c0-1.604166 2.470833-13.033333-10.4-13.279166-7.108333 0-12.204167 4.729166-14.270834 13.279166z"/><path d="m393.129167 229.252083c0 9.408333 5.2875 15.9 17.325 20.745834 9.204167 3.766666 10.65 4.858333 10.65 8.2125 0 4.666666-4.066666 6.808333-13.0875 6.75-6.783333-.045834-12.966666-.870834-20.2625-2.895834l-3.2375 17.145834c6.491667 1.516666 15.595834 2.0125 23.654167 2.2 24.025 0 35.120834-7.870834 35.120834-24.870834 0-10.216666-4.629167-16.2375-16.041667-20.7125-9.5375-3.808333-10.654167-4.6375-10.654167-8.083333 0-4.05 3.783333-6.1 11.145834-6.1 4.470833 0 10.583333.416666 16.3875 1.1125l3.25-17.245834c-5.9125-.825-14.879167-1.483333-20.066667-1.483333-25.458334 0-34.2625 11.454167-34.183334 25.225"/><path d="m304.8875 280.18125h-18.666667l.45-7.820833c-5.695833 6.158333-13.275 9.033333-23.558333 9.033333-12.175001 0-20.520834-8.325-20.520834-20.2875 0-18.204167 14.495833-28.695834 39.429167-28.695834 2.5625 0 5.816667.191667 9.170833.5625.691667-2.433333.875-3.475.875-4.808333 0-4.983333-3.916666-6.8125-14.408333-6.8125-10.341667.041667-17.320833 1.575-23.795834 3.3125l3.183334-16.695833c11.2-2.85 18.529167-3.945834 26.829167-3.945834 19.304167 0 29.495833 7.566667 29.495833 21.791667.166667 3.8-1.158333 11.4125-1.816666 14.754167-.7625 4.85-6.1125 32.970833-6.666667 39.6125zm-16.3875-33.195833c-2.358334-.245834-3.391667-.3125-5.0125-.3125-12.720834 0-19.179167 3.7875-19.179167 11.266666 0 4.695834 3.154167 7.633334 8.054167 7.633334 9.154166 0 15.758333-7.654167 16.1375-18.5875z"/><path d="m482.608335 279.002083c-6.120834 1.675-10.895834 2.408334-16.054167 2.408334-11.433334 0-17.670834-5.845834-17.670834-16.254167-.3625-2.854167 2.433334-16.058333 3.0625-19.7375.633334-3.691667 10.5375-57.491667 10.5375-57.491667h22.208334l-3.354167 17.8h11.391667l-3.095833 18.170833h-11.441667s-6.283333 31.529167-6.283333 33.933334c0 3.825 2.320833 5.479167 7.633333 5.479167 2.541667 0 4.508333-.229167 6.029167-.691667z"/><path d="m593.079169 236.635416c0 16.775001-6.879167 26.708334-17.754167 26.708334-7.920833.1125-12.725-6.525-12.725-16.475 0-11.791667 7.008333-25.1125 18.270833-25.1125 9.091667 0 12.208334 7.2125 12.208334 14.879166zm23.979167.466667c0-18.579167-12.208334-33.079167-35.195834-33.079167-26.45 0-43.55 17.625-43.55 43.595834 0 18.579167 10.083333 33.791667 35.15 33.791667 25.2875 0 43.595834-13.5125 43.595834-44.308334z"/><path d="m502.395835 205.71875c-2.820834 23.029166-7.816667 46.375-11.720834 69.45l-.945833 5.020833h22.433334c8.0875-44.558333 10.8-57.254167 27.741666-52.783333l8.15-21.0875c-11.816666-4.3375-19.425 1.854166-26.308333 10.658333.620833-3.9625 1.791667-7.783333 1.508333-11.258333z"/><path d="m232.137499 280.189583h-22.3375l13.275-69.958333-30.575 69.958333h-20.3625l-3.725-69.554167-13.320834 69.554167h-20.270833l17.2625-91h34.920834l1.845833 56.333334 24.575-56.333334h36.325z"/></g></g></svg>

<svg width="750" height="471" viewBox="0 0 750 471" version="1.1" xmlns="http://www.w3.org/2000/svg" xmlns:xlink="http://www.w3.org/1999/xlink">
    <!-- Generator: Sketch 48.2 (47327) - http://www.bohemiancoding.com/sketch -->
    <desc>Created with Sketch.</desc>
    <defs></defs>
    <g id="Page-1" stroke="none" stroke-width="1" fill="none" fill-rule="evenodd">
        <g id="maestro" fill-rule="nonzero">
            <rect id="Rectangle-1" fill="#000000" x="0" y="0" width="750" height="471" rx="40"></rect>
            <path d="M675.000003,235.50625 C675.000003,334.639584 594.650002,415.002085 495.516668,415.002085 C396.395834,415.002085 316.0375,334.639584 316.0375,235.50625 C316.0375,136.364582 396.395834,55.997915 495.516668,55.997915 C594.650002,55.997915 675.000003,136.364582 675.000003,235.50625" id="Fill-1" fill="#D9222A"></path>
            <path d="M356.870834,349.489584 C351.9125,343.477084 347.345834,337.131251 343.195834,330.481251 L406.808334,330.481251 C410.625001,324.385417 414.070834,318.039584 417.150001,311.46875 L332.858333,311.46875 C329.9875,305.31875 327.433333,298.977084 325.2625,292.46875 L424.737501,292.46875 C430.725001,274.564583 433.966668,255.41875 433.966668,235.50625 C433.966668,222.460416 432.575001,209.74375 429.937501,197.493749 L320.075,197.493749 C321.466667,191.014583 323.216667,184.677083 325.283333,178.485416 L424.725001,178.485416 C422.541667,171.977083 420.004167,165.635416 417.133334,159.481249 L332.879167,159.481249 C335.954167,152.918749 339.408333,146.577082 343.216667,140.472916 L406.787501,140.472916 C402.641667,133.843749 398.062501,127.497916 393.116667,121.481249 L356.891667,121.481249 C362.4625,114.714582 368.520834,108.364582 375.004167,102.481249 C343.15,73.5979152 300.866667,55.997915 254.487499,55.997915 C155.358332,55.997915 74.999998,136.364582 74.999998,235.50625 C74.999998,334.639584 155.358332,415.002085 254.487499,415.002085 C300.875,415.002085 343.154167,397.406251 375.004167,368.527084 C381.5,362.635417 387.562501,356.268751 393.137501,349.489584 L356.870834,349.489584" id="Fill-2" fill="#0097D0"></path>
            <path d="M651.075003,335.543751 C651.075003,332.343751 653.670836,329.747917 656.875003,329.747917 C660.075003,329.747917 662.666669,332.343751 662.666669,335.543751 C662.666669,338.747917 660.075003,341.343751 656.875003,341.343751 C653.670836,341.343751 651.075003,338.747917 651.075003,335.543751 Z M656.875003,339.952084 C659.308336,339.952084 661.279169,337.985417 661.279169,335.543751 C661.279169,333.110417 659.308336,331.147917 656.875003,331.147917 C654.441669,331.147917 652.466669,333.110417 652.466669,335.543751 C652.466669,337.985417 654.441669,339.952084 656.875003,339.952084 Z M656.087503,338.089584 L654.904169,338.089584 L654.904169,332.997917 L657.054169,332.997917 C657.500003,332.997917 657.958336,333.002084 658.354169,333.256251 C658.770836,333.539584 659.000003,334.031251 659.000003,334.527084 C659.000003,335.110417 658.662503,335.639584 658.120836,335.843751 L659.054169,338.089584 L657.737503,338.089584 L656.962503,336.081251 L656.087503,336.081251 L656.087503,338.089584 Z M656.087503,335.210417 L656.745836,335.210417 C656.991669,335.210417 657.250003,335.227084 657.470836,335.110417 C657.666669,334.981251 657.770836,334.743751 657.770836,334.518751 C657.770836,334.331251 657.645836,334.102084 657.483336,334.006251 C657.270836,333.881251 656.941669,333.906251 656.720836,333.906251 L656.087503,333.906251 L656.087503,335.210417 Z" id="Fill-3" fill="#000000"></path>
            <path d="M372.445834,284.00625 C364.775,286.039584 357.358334,287.03125 349.516667,287.014584 C324.5,286.989584 311.470833,275.597917 311.470833,253.814583 C311.470833,228.35625 328.058333,209.63125 350.570834,209.63125 C368.9875,209.63125 380.745834,220.13125 380.745834,236.577083 C380.745834,242.035417 379.95,247.347917 378,254.872917 L333.5125,254.872917 C331.929167,265.50625 339.7,270.177083 352.925,270.177083 C360.85,270.177083 368.016667,268.752083 375.95,265.564583 L372.445834,284.00625 Z M360.483334,239.85625 C360.483334,238.247916 362.958334,226.822916 350.083334,226.572916 C342.975,226.572916 337.875,231.297916 335.8125,239.85625 L360.483334,239.85625 Z" id="Fill-4" fill="#000000"></path>
            <path d="M387.516667,234.864583 C387.516667,244.26875 392.812501,250.764583 404.845834,255.602083 C414.045834,259.372917 415.495834,260.460417 415.495834,263.822917 C415.495834,268.485417 411.429167,270.627083 402.404167,270.56875 C395.625001,270.51875 389.441667,269.697917 382.141667,267.672917 L378.9125,284.827084 C385.400001,286.33125 394.500001,286.827084 402.562501,287.014584 C426.587501,287.014584 437.679168,279.147917 437.679168,262.147917 C437.679168,251.93125 433.054168,245.914583 421.645834,241.435417 C412.108334,237.627083 410.987501,236.797916 410.987501,233.352083 C410.987501,229.302083 414.766667,227.252083 422.137501,227.252083 C426.600001,227.252083 432.716668,227.664583 438.516668,228.360416 L441.775001,211.11875 C435.862501,210.29375 426.891668,209.635416 421.700001,209.635416 C396.250001,209.635416 387.441667,221.09375 387.516667,234.864583" id="Fill-5" fill="#000000"></path>
            <path d="M299.275,285.785417 L280.6125,285.785417 L281.058333,277.964583 C275.366666,284.135417 267.7875,287.00625 257.499999,287.00625 C245.324999,287.00625 236.983333,278.68125 236.983333,266.710417 C236.983333,248.514583 251.483333,238.01875 276.4125,238.01875 C278.975,238.01875 282.233333,238.210416 285.579166,238.58125 C286.270833,236.147916 286.458333,235.102083 286.458333,233.772916 C286.458333,228.79375 282.5375,226.960416 272.045833,226.960416 C261.704166,227.002083 254.724999,228.53125 248.249999,230.272916 L251.437499,213.572916 C262.633333,210.727083 269.966666,209.63125 278.2625,209.63125 C297.566666,209.63125 307.7625,217.197916 307.7625,231.427083 C307.929167,235.222916 306.604167,242.839583 305.941667,246.172917 C305.183333,251.027083 299.833333,279.147917 299.275,285.785417 Z M282.895833,252.59375 C280.529166,252.352083 279.5,252.28125 277.883333,252.28125 C265.154166,252.28125 258.7,256.06875 258.7,263.547917 C258.7,268.239583 261.85,271.18125 266.758333,271.18125 C275.904166,271.18125 282.508333,263.53125 282.895833,252.59375 Z" id="Fill-6" fill="#000000"></path>
            <path d="M477.004168,284.60625 C470.879168,286.285417 466.108334,287.014584 460.945834,287.014584 C449.512501,287.014584 443.270834,281.172917 443.270834,270.764583 C442.912501,267.90625 445.704168,254.70625 446.337501,251.027083 C446.970834,247.335417 456.875001,193.535416 456.875001,193.535416 L479.087501,193.535416 L475.725001,211.335416 L487.116668,211.335416 L484.020835,229.50625 L472.579168,229.50625 C472.579168,229.50625 466.300001,261.035417 466.300001,263.439583 C466.300001,267.264583 468.616668,268.927083 473.933335,268.927083 C476.479168,268.927083 478.441668,268.689583 479.962501,268.235417 L477.004168,284.60625" id="Fill-7" fill="#000000"></path>
            <path d="M576.250002,209.63125 C559.970835,209.63125 547.250002,216.33125 539.862502,227.522916 L546.275002,210.927083 C534.458335,206.589583 526.841668,212.777083 519.950002,221.577083 C519.950002,221.577083 518.795835,223.039583 517.650002,224.377083 L517.650002,211.327083 L496.791668,211.327083 C493.966668,234.35625 488.970835,257.70625 485.062501,280.772917 L484.120835,285.79375 L506.558335,285.79375 C508.683335,274.085417 510.433335,264.58125 512.175002,257.00625 C516.941668,236.21875 524.962502,229.864583 537.004168,232.672916 C534.225002,238.652083 532.700002,245.564583 532.700002,253.227083 C532.700002,271.80625 542.791668,287.014584 567.850002,287.014584 C593.137502,287.014584 611.445836,273.50625 611.445836,242.70625 C611.445836,224.127083 599.245836,209.63125 576.250002,209.63125 Z M569.720835,268.947917 C561.795835,269.072917 556.991669,262.422917 556.991669,252.477083 C556.991669,240.685417 564.004169,227.364583 575.266669,227.364583 C584.354169,227.364583 587.466669,234.56875 587.466669,242.24375 C587.466669,259.022917 580.591669,268.947917 569.720835,268.947917 Z" id="Fill-8" fill="#000000"></path>
            <polyline id="Fill-9" fill="#000000" points="226.529166 285.79375 204.187499 285.79375 217.466666 215.839583 186.895832 285.79375 166.529165 285.79375 162.804165 216.24375 149.483332 285.79375 129.212498 285.79375 146.479165 194.797916 181.391666 194.797916 184.304166 245.522917 206.420832 194.797916 244.141666 194.797916 226.529166 285.79375"></polyline>
            <path d="M613.150002,274.385417 C613.150002,271.189583 615.745836,268.589583 618.945836,268.589583 C622.150002,268.589583 624.741669,271.189583 624.741669,274.385417 C624.741669,277.59375 622.150002,280.189583 618.945836,280.189583 C615.745836,280.189583 613.150002,277.59375 613.150002,274.385417 Z M618.945836,278.797917 C621.379169,278.797917 623.354169,276.81875 623.354169,274.385417 C623.354169,271.952083 621.379169,269.98125 618.945836,269.98125 C616.512502,269.98125 614.537502,271.952083 614.537502,274.385417 C614.537502,276.81875 616.512502,278.797917 618.945836,278.797917 Z M618.162502,276.93125 L616.975002,276.93125 L616.975002,271.847917 L619.125002,271.847917 C619.575002,271.847917 620.033336,271.847917 620.429169,272.097917 C620.837502,272.377083 621.075002,272.864583 621.075002,273.36875 C621.075002,273.947917 620.737502,274.485417 620.191669,274.685417 L621.125002,276.93125 L619.808336,276.93125 L619.037502,274.922917 L618.162502,274.922917 L618.162502,276.93125 Z M618.162502,274.04375 L618.820836,274.04375 C619.062502,274.04375 619.325002,274.060417 619.545836,273.947917 C619.741669,273.814583 619.841669,273.589583 619.841669,273.360417 C619.841669,273.164583 619.720836,272.94375 619.558336,272.847917 C619.345836,272.71875 619.016669,272.752083 618.795836,272.752083 L618.162502,272.752083 L618.162502,274.04375 Z" id="Fill-10" fill="#FFFFFF"></path>
            <path d="M378.054167,278.397917 C370.3875,280.43125 362.966667,281.427084 355.129167,281.410417 C330.1125,281.385417 317.083333,269.989583 317.083333,248.202083 C317.083333,222.752083 333.6625,204.022916 356.179167,204.022916 C374.6,204.022916 386.354167,214.51875 386.354167,230.964583 C386.354167,236.43125 385.554167,241.735417 383.612501,249.264583 L339.125,249.264583 C337.541667,259.89375 345.304167,264.572917 358.533334,264.572917 C366.458334,264.572917 373.620834,263.147917 381.5625,259.95625 L378.054167,278.397917 Z M366.091667,234.247916 C366.091667,232.64375 368.5625,221.214583 355.691667,220.96875 C348.583334,220.96875 343.4875,225.697916 341.420833,234.247916 L366.091667,234.247916 Z" id="Fill-11" fill="#FFFFFF"></path>
            <path d="M393.129167,229.252083 C393.129167,238.660416 398.416667,245.152083 410.454167,249.997917 C419.658334,253.764583 421.104167,254.85625 421.104167,258.210417 C421.104167,262.877083 417.037501,265.01875 408.016667,264.960417 C401.233334,264.914583 395.050001,264.089583 387.754167,262.064583 L384.516667,279.210417 C391.008334,280.727083 400.112501,281.222917 408.170834,281.410417 C432.195834,281.410417 443.291668,273.539583 443.291668,256.539583 C443.291668,246.322917 438.662501,240.302083 427.250001,235.827083 C417.712501,232.01875 416.595834,231.189583 416.595834,227.74375 C416.595834,223.69375 420.379167,221.64375 427.741668,221.64375 C432.212501,221.64375 438.325001,222.060416 444.129168,222.75625 L447.379168,205.510416 C441.466668,204.685416 432.500001,204.027083 427.312501,204.027083 C401.854167,204.027083 393.050001,215.48125 393.129167,229.252083" id="Fill-12" fill="#FFFFFF"></path>
            <path d="M304.8875,280.18125 L286.220833,280.18125 L286.670833,272.360417 C280.975,278.51875 273.395833,281.39375 263.1125,281.39375 C250.937499,281.39375 242.591666,273.06875 242.591666,261.10625 C242.591666,242.902083 257.087499,232.410416 282.020833,232.410416 C284.583333,232.410416 287.8375,232.602083 291.191666,232.972916 C291.883333,230.539583 292.066666,229.497916 292.066666,228.164583 C292.066666,223.18125 288.15,221.352083 277.658333,221.352083 C267.316666,221.39375 260.3375,222.927083 253.862499,224.664583 L257.045833,207.96875 C268.245833,205.11875 275.575,204.022916 283.875,204.022916 C303.179167,204.022916 313.370833,211.589583 313.370833,225.814583 C313.5375,229.614583 312.2125,237.227083 311.554167,240.56875 C310.791667,245.41875 305.441667,273.539583 304.8875,280.18125 Z M288.5,246.985417 C286.141666,246.739583 285.108333,246.672917 283.4875,246.672917 C270.766666,246.672917 264.308333,250.460417 264.308333,257.939583 C264.308333,262.635417 267.4625,265.572917 272.3625,265.572917 C281.516666,265.572917 288.120833,257.91875 288.5,246.985417 Z" id="Fill-13" fill="#FFFFFF"></path>
            <path d="M482.608335,279.002083 C476.487501,280.677083 471.712501,281.410417 466.554168,281.410417 C455.120834,281.410417 448.883334,275.564583 448.883334,265.15625 C448.520834,262.302083 451.316668,249.097917 451.945834,245.41875 C452.579168,241.727083 462.483334,187.927083 462.483334,187.927083 L484.691668,187.927083 L481.337501,205.727083 L492.729168,205.727083 L489.633335,223.897916 L478.191668,223.897916 C478.191668,223.897916 471.908335,255.427083 471.908335,257.83125 C471.908335,261.65625 474.229168,263.310417 479.541668,263.310417 C482.083335,263.310417 484.050001,263.08125 485.570835,262.61875 L482.608335,279.002083" id="Fill-14" fill="#FFFFFF"></path>
            <path d="M593.079169,236.635416 C593.079169,253.410417 586.200002,263.34375 575.325002,263.34375 C567.404169,263.45625 562.600002,256.81875 562.600002,246.86875 C562.600002,235.077083 569.608335,221.75625 580.870835,221.75625 C589.962502,221.75625 593.079169,228.96875 593.079169,236.635416 Z M617.058336,237.102083 C617.058336,218.522916 604.850002,204.022916 581.862502,204.022916 C555.412502,204.022916 538.312502,221.647916 538.312502,247.61875 C538.312502,266.197917 548.395835,281.410417 573.462502,281.410417 C598.750002,281.410417 617.058336,267.897917 617.058336,237.102083 Z" id="Fill-15" fill="#FFFFFF"></path>
            <path d="M502.395835,205.71875 C499.575001,228.747916 494.579168,252.09375 490.675001,275.16875 L489.729168,280.189583 L512.162502,280.189583 C520.250002,235.63125 522.962502,222.935416 539.904168,227.40625 L548.054168,206.31875 C536.237502,201.98125 528.629168,208.172916 521.745835,216.977083 C522.366668,213.014583 523.537502,209.19375 523.254168,205.71875 L502.395835,205.71875" id="Fill-16" fill="#FFFFFF"></path>
            <polyline id="Fill-17" fill="#FFFFFF" points="232.137499 280.189583 209.799999 280.189583 223.074999 210.23125 192.499999 280.189583 172.137499 280.189583 168.412499 210.635416 155.091665 280.189583 134.820832 280.189583 152.083332 189.189583 187.004166 189.189583 188.849999 245.522917 213.424999 189.189583 249.749999 189.189583 232.137499 280.189583"></polyline>
        </g>
    </g>
</svg>
